icons/smoking.svg

<svg width="48" height="48" viewBox="0 0 48 48" fill="none" xmlns="http://www.w3.org/2000/svg">
<path d="M38 10C37.4477 10 37 10.4477 37 11C37 11.5523 37.4477 12 38 12C39.6569 12 41 13.3431 41 15V16.5909C41 17.9214 39.9214 19 38.5909 19H38C37.4477 19 37 19.4477 37 20C37 20.5523 37.4477 21 38 21C40.2091 21 42 22.7909 42 25V28C42 28.5523 42.4477 29 43 29C43.5523 29 44 28.5523 44 28V25C44 22.9294 42.9512 21.1039 41.3559 20.0255C42.3585 19.2173 43 17.979 43 16.5909V15C43 12.2386 40.7614 10 38 10Z" fill="black"/>
<path d="M31 20C31 18.3431 32.3431 17 34 17C34.5523 17 35 16.5523 35 16C35 15.4477 34.5523 15 34 15C31.2386 15 29 17.2386 29 20V21.8182C29 24.5796 31.2386 26.8182 34 26.8182H37C37.5523 26.8182 38 27.2659 38 27.8182V28C38 28.5523 38.4477 29 39 29C39.5523 29 40 28.5523 40 28V27.8182C40 26.1613 38.6569 24.8182 37 24.8182H34C32.3431 24.8182 31 23.475 31 21.8182V20Z" fill="black"/>
<path fill-rule="evenodd" clip-rule="evenodd" d="M4 33C4 31.3431 5.34315 30 7 30H33C34.6569 30 36 31.3431 36 33V35C36 36.6569 34.6569 38 33 38H7C5.34315 38 4 36.6569 4 35V33ZM7 32C6.44772 32 6 32.4477 6 33V35C6 35.5523 6.44772 36 7 36H33C33.5523 36 34 35.5523 34 35V33C34 32.4477 33.5523 32 33 32H7Z" fill="black"/>
<path d="M39 31C39.5523 31 40 31.4477 40 32V36C40 36.5523 39.5523 37 39 37C38.4477 37 38 36.5523 38 36V32C38 31.4477 38.4477 31 39 31Z" fill="black"/>
<path d="M43 31C43.5523 31 44 31.4477 44 32V36C44 36.5523 43.5523 37 43 37C42.4477 37 42 36.5523 42 36V32C42 31.4477 42.4477 31 43 31Z" fill="black"/>
</svg>

<svg
  xmlns="http://www.w3.org/2000/svg"
  width="24"
  height="24"
  viewBox="0 0 24 24"
  fill="none"
  stroke="currentColor"
  stroke-width="2"
  stroke-linecap="round"
  stroke-linejoin="round"
>
  <path d="M38 10a1 1 0 1 0 0 2 3 3 0 0 1 3 3v1.59A2.41 2.41 0 0 1 38.59 19H38a1 1 0 1 0 0 2 4 4 0 0 1 4 4v3a1 1 0 1 0 2 0v-3a6 6 0 0 0-2.644-4.974A4.4 4.4 0 0 0 43 16.59V15a5 5 0 0 0-5-5" />
  <path d="M31 20a3 3 0 0 1 3-3 1 1 0 1 0 0-2 5 5 0 0 0-5 5v1.818a5 5 0 0 0 5 5h3a1 1 0 0 1 1 1V28a1 1 0 1 0 2 0v-.182a3 3 0 0 0-3-3h-3a3 3 0 0 1-3-3z" />
  <path
    fill-rule="evenodd"
    d="M4 33a3 3 0 0 1 3-3h26a3 3 0 0 1 3 3v2a3 3 0 0 1-3 3H7a3 3 0 0 1-3-3zm3-1a1 1 0 0 0-1 1v2a1 1 0 0 0 1 1h26a1 1 0 0 0 1-1v-2a1 1 0 0 0-1-1z"
    clip-rule="evenodd"
  />
  <path d="M39 31a1 1 0 0 1 1 1v4a1 1 0 1 1-2 0v-4a1 1 0 0 1 1-1" />
  <path d="M43 31a1 1 0 0 1 1 1v4a1 1 0 1 1-2 0v-4a1 1 0 0 1 1-1" />
</svg>
